icons/gift-line.svg

<svg viewBox="0 0 24 24" fill="currentColor" xmlns="http://www.w3.org/2000/svg">
    <path d="M15.0049 2.00281C17.214 2.00281 19.0049 3.79367 19.0049 6.00281C19.0049 6.73184 18.8098 7.41532 18.4691 8.00392L23.0049 8.00281V10.0028H21.0049V20.0028C21.0049 20.5551 20.5572 21.0028 20.0049 21.0028H4.00488C3.4526 21.0028 3.00488 20.5551 3.00488 20.0028V10.0028H1.00488V8.00281L5.54065 8.00392C5.19992 7.41532 5.00488 6.73184 5.00488 6.00281C5.00488 3.79367 6.79574 2.00281 9.00488 2.00281C10.2001 2.00281 11.2729 2.52702 12.0058 3.35807C12.7369 2.52702 13.8097 2.00281 15.0049 2.00281ZM11.0049 10.0028H5.00488V19.0028H11.0049V10.0028ZM19.0049 10.0028H13.0049V19.0028H19.0049V10.0028ZM9.00488 4.00281C7.90031 4.00281 7.00488 4.89824 7.00488 6.00281C7.00488 7.05717 7.82076 7.92097 8.85562 7.99732L9.00488 8.00281H11.0049V6.00281C11.0049 5.00116 10.2686 4.1715 9.30766 4.02558L9.15415 4.00829L9.00488 4.00281ZM15.0049 4.00281C13.9505 4.00281 13.0867 4.81869 13.0104 5.85355L13.0049 6.00281V8.00281H15.0049C16.0592 8.00281 16.923 7.18693 16.9994 6.15207L17.0049 6.00281C17.0049 4.89824 16.1095 4.00281 15.0049 4.00281Z"/>
</svg>

<svg xmlns="http://www.w3.org/2000/svg" viewBox="0 0 24 24">
    <g>
        <path fill="none" d="M0 0h24v24H0z"/>
        <path fill-rule="nonzero" d="M15 2a4 4 0 0 1 3.464 6.001L23 8v2h-2v10a1 1 0 0 1-1 1H4a1 1 0 0 1-1-1V10H1V8l4.536.001A4 4 0 0 1 12 3.355 3.983 3.983 0 0 1 15 2zm-4 8H5v9h6v-9zm8 0h-6v9h6v-9zM9 4a2 2 0 0 0-.15 3.995L9 8h2V6a2 2 0 0 0-1.697-1.977l-.154-.018L9 4zm6 0a2 2 0 0 0-1.995 1.85L13 6v2h2a2 2 0 0 0 1.995-1.85L17 6a2 2 0 0 0-2-2z"/>
    </g>
</svg>
